docs/svg/star.svg

<svg width="34" height="34" viewBox="0 0 34 34" fill="none" xmlns="http://www.w3.org/2000/svg">
<g id="ic:round-star">
<path id="Vector" d="M16.9998 24.4658L22.879 28.0217C23.9556 28.6733 25.2731 27.71 24.9898 26.4917L23.4315 19.805L28.6306 15.3C29.5798 14.4783 29.0698 12.92 27.8231 12.8208L20.9806 12.24L18.3031 5.92166C17.8215 4.77416 16.1781 4.77416 15.6965 5.92166L13.019 12.2258L6.17646 12.8067C4.9298 12.9058 4.4198 14.4642 5.36896 15.2858L10.5681 19.7908L9.0098 26.4775C8.72646 27.6958 10.044 28.6592 11.1206 28.0075L16.9998 24.4658Z" fill="#E76020"/>
</g>
</svg>

<svg xmlns="http://www.w3.org/2000/svg" width="34" height="34" fill="none"><path fill="#E76020" d="m17 24.466 5.879 3.556c1.077.651 2.394-.312 2.11-1.53l-1.558-6.687 5.2-4.505c.949-.822.439-2.38-.808-2.48l-6.842-.58-2.678-6.318c-.482-1.148-2.125-1.148-2.607 0l-2.677 6.304-6.843.58c-1.246.1-1.756 1.658-.807 2.48l5.2 4.505-1.56 6.686c-.283 1.219 1.035 2.182 2.112 1.53z"/></svg>
